X: 10012
T: Dhamhsadh Coinnach Ri Inghinn
R: slip jig
M: 9/8
K: Dmixolydian
FDD FDA AAD|FDD FDA c2E
FDD FDA ~d3|BGG AFF c2E:|
|:FFd FFd AAD|FFd FFd c2E|
[1 FFd FDA ~d3|BGG AFF c2E:|
[2 dcB AAA ~d3|BGG AFF c2E||

